X: 29
T: Pao kouwai paode xin canle
%%abc-version 2.0
%%abcx-abcm2ps-target-version 5.9.1 (29 Sep 2008)
%%abc-creator hum2abc beta
%%abcx-conversion-date 2013/10/02 07:52:29
%%abc-edited-by Helmut Schaffrath
%%humdrum-veritas 207783461
%%humdrum-veritas-data 597157480
%%continueall 1
%%barnumbers 0
L: 1/16
M: 2/4
K: Bb
g2 g2 g2 d2 [I:setbarnb 1]| 
d2 d bg4 | 
g2 g c' f'2 d c | 
d8 | 
g2 g bg4 | 
g2 g c' f2 d c | 
d2 A2 G2 D D | 
G8 |]  



